X:1
T: Offa's Dyke - or - Oswestry Square
N:
C:
S:Tune is "The Cowslip"
A:
O:
R:
M:6/8
K:G
I:speed 150
%W: A1
% voice 1 (1 lines, 32 notes)
K:G
M:6/8
L:1/16
d2 |g4 g2 d4 c2 B2 d4d4 d2 g4 g2 B4 c2 d6d4 d2 |g4 g2 e2 f2 g2 a4 g2 d4 d2 d4 g2 a4 a2 g6g4 d2 |
%W: A2
% voice 1 (1 lines, 32 notes)
g4 g2 d4 c2 B2 d4d4 d2 g4 g2 B4 c2 d6d4 d2 |g4 g2 e2 f2 g2 a4 g2 d4 d2 d4 g2 a4 a2 g6g4 f g |
%W: B1
% voice 1 (1 lines, 35 notes)
a4 a2 f4 g2 a6a4 g a b4 b2 g4 a2 b6b4 b a |g2 f2 e2 d4 d2 e2 d2 c2 B4 d2 e2 f2 g2 a4 f2 g6g4 f g |
%W: B2
% voice 1 (1 lines, 34 notes)
a4 a2 f4 g2 a6a4 g a b4 b2 g4 a2 b6b4 b a |g2 f2 e2 d4 d2 e2 d2 c2 B4 d2 e2 f2 g2 a4 f2 g6g4 g2 |
%W: C1
% voice 1 (1 lines, 37 notes)
g4 f2 e2 g2 a2 b3 a g f e4 d2 g4 b2 a3 g f2 e6 d4 d2 |g2 f2 e2 d4 d2 e2 d2 c2 B4 d2 e2 f2 g2 a4 f2 g6g4 g2 |
%W: C2
% voice 1 (1 lines, 36 notes)
g4 f2 e2 g2 a2 b3 a g f e4 d2 g4 b2 a3 g f2 e6 d4 d2 |g2 f2 e2 d4 d2 e2 d2 c2 B4 d2 e2 f2 g2 a4 f2 g6g4 ||
